assets/1. P-Z/Running shirt/Color/Running.Shirt-color.svg

<svg width="100%" height="100%" viewBox="0 0 32 32" fill="none" xmlns="http://www.w3.org/2000/svg">
<path d="M15.906 8.52896C13.406 8.52896 11.906 6 11.906 6V10H19.906V6C19.906 6 18.406 8.52896 15.906 8.52896Z" fill="url(#paint0_radial_18_2983)"/>
<path d="M15.906 8.52896C13.406 8.52896 11.906 6 11.906 6V10H19.906V6C19.906 6 18.406 8.52896 15.906 8.52896Z" fill="url(#paint1_radial_18_2983)"/>
<g filter="url(#filter0_ii_18_2983)">
<path d="M8.656 2H12.156C12.5702 2 12.906 2.33579 12.906 2.75V7C12.906 8.65685 14.2492 10 15.906 10C17.5629 10 18.906 8.65685 18.906 7V2.75C18.906 2.33579 19.2418 2 19.656 2H23.156C23.5702 2 23.906 2.33579 23.906 2.75V11C23.906 11.1097 23.9148 11.2173 23.9318 11.3222C24.0859 12.2736 24.9111 13 25.906 13H26.156C26.5702 13 26.906 13.3358 26.906 13.75V29.25C26.906 29.6642 26.5702 30 26.156 30H5.65601C5.24179 30 4.90601 29.6642 4.90601 29.25V13.75C4.90601 13.3358 5.24179 13 5.65601 13H5.906C7.01057 13 7.906 12.1046 7.906 11V2.75C7.906 2.33579 8.24179 2 8.656 2Z" fill="url(#paint2_linear_18_2983)"/>
<path d="M8.656 2H12.156C12.5702 2 12.906 2.33579 12.906 2.75V7C12.906 8.65685 14.2492 10 15.906 10C17.5629 10 18.906 8.65685 18.906 7V2.75C18.906 2.33579 19.2418 2 19.656 2H23.156C23.5702 2 23.906 2.33579 23.906 2.75V11C23.906 11.1097 23.9148 11.2173 23.9318 11.3222C24.0859 12.2736 24.9111 13 25.906 13H26.156C26.5702 13 26.906 13.3358 26.906 13.75V29.25C26.906 29.6642 26.5702 30 26.156 30H5.65601C5.24179 30 4.90601 29.6642 4.90601 29.25V13.75C4.90601 13.3358 5.24179 13 5.65601 13H5.906C7.01057 13 7.906 12.1046 7.906 11V2.75C7.906 2.33579 8.24179 2 8.656 2Z" fill="url(#paint3_radial_18_2983)"/>
<path d="M8.656 2H12.156C12.5702 2 12.906 2.33579 12.906 2.75V7C12.906 8.65685 14.2492 10 15.906 10C17.5629 10 18.906 8.65685 18.906 7V2.75C18.906 2.33579 19.2418 2 19.656 2H23.156C23.5702 2 23.906 2.33579 23.906 2.75V11C23.906 11.1097 23.9148 11.2173 23.9318 11.3222C24.0859 12.2736 24.9111 13 25.906 13H26.156C26.5702 13 26.906 13.3358 26.906 13.75V29.25C26.906 29.6642 26.5702 30 26.156 30H5.65601C5.24179 30 4.90601 29.6642 4.90601 29.25V13.75C4.90601 13.3358 5.24179 13 5.65601 13H5.906C7.01057 13 7.906 12.1046 7.906 11V2.75C7.906 2.33579 8.24179 2 8.656 2Z" fill="url(#paint4_radial_18_2983)"/>
</g>
<path d="M8.656 2H12.156C12.5702 2 12.906 2.33579 12.906 2.75V7C12.906 8.65685 14.2492 10 15.906 10C17.5629 10 18.906 8.65685 18.906 7V2.75C18.906 2.33579 19.2418 2 19.656 2H23.156C23.5702 2 23.906 2.33579 23.906 2.75V11C23.906 11.1097 23.9148 11.2173 23.9318 11.3222C24.0859 12.2736 24.9111 13 25.906 13H26.156C26.5702 13 26.906 13.3358 26.906 13.75V29.25C26.906 29.6642 26.5702 30 26.156 30H5.65601C5.24179 30 4.90601 29.6642 4.90601 29.25V13.75C4.90601 13.3358 5.24179 13 5.65601 13H5.906C7.01057 13 7.906 12.1046 7.906 11V2.75C7.906 2.33579 8.24179 2 8.656 2Z" fill="url(#paint5_linear_18_2983)"/>
<path d="M8.656 2H12.156C12.5702 2 12.906 2.33579 12.906 2.75V7C12.906 8.65685 14.2492 10 15.906 10C17.5629 10 18.906 8.65685 18.906 7V2.75C18.906 2.33579 19.2418 2 19.656 2H23.156C23.5702 2 23.906 2.33579 23.906 2.75V11C23.906 11.1097 23.9148 11.2173 23.9318 11.3222C24.0859 12.2736 24.9111 13 25.906 13H26.156C26.5702 13 26.906 13.3358 26.906 13.75V29.25C26.906 29.6642 26.5702 30 26.156 30H5.65601C5.24179 30 4.90601 29.6642 4.90601 29.25V13.75C4.90601 13.3358 5.24179 13 5.65601 13H5.906C7.01057 13 7.906 12.1046 7.906 11V2.75C7.906 2.33579 8.24179 2 8.656 2Z" fill="url(#paint6_linear_18_2983)"/>
<path d="M8.656 2H12.156C12.5702 2 12.906 2.33579 12.906 2.75V7C12.906 8.65685 14.2492 10 15.906 10C17.5629 10 18.906 8.65685 18.906 7V2.75C18.906 2.33579 19.2418 2 19.656 2H23.156C23.5702 2 23.906 2.33579 23.906 2.75V11C23.906 11.1097 23.9148 11.2173 23.9318 11.3222C24.0859 12.2736 24.9111 13 25.906 13H26.156C26.5702 13 26.906 13.3358 26.906 13.75V29.25C26.906 29.6642 26.5702 30 26.156 30H5.65601C5.24179 30 4.90601 29.6642 4.90601 29.25V13.75C4.90601 13.3358 5.24179 13 5.65601 13H5.906C7.01057 13 7.906 12.1046 7.906 11V2.75C7.906 2.33579 8.24179 2 8.656 2Z" fill="url(#paint7_radial_18_2983)"/>
<path d="M7.15017 30H5.65601C5.24179 30 4.90601 29.6642 4.90601 29.25V27.7846L23.906 6.63782V11C23.906 11.1097 23.9148 11.2173 23.9318 11.3222L7.15017 30Z" fill="url(#paint8_linear_18_2983)"/>
<path d="M7.15017 30H5.65601C5.24179 30 4.90601 29.6642 4.90601 29.25V27.7846L23.906 6.63782V11C23.906 11.1097 23.9148 11.2173 23.9318 11.3222L7.15017 30Z" fill="url(#paint9_linear_18_2983)"/>
<path d="M7.15017 30H5.65601C5.24179 30 4.90601 29.6642 4.90601 29.25V27.7846L23.906 6.63782V11C23.906 11.1097 23.9148 11.2173 23.9318 11.3222L7.15017 30Z" fill="url(#paint10_linear_18_2983)"/>
<defs>
<filter id="filter0_ii_18_2983" x="4.40601" y="1.5" width="23" height="29" filterUnits="userSpaceOnUse" color-interpolation-filters="sRGB">
<feFlood flood-opacity="0" result="BackgroundImageFix"/>
<feBlend mode="normal" in="SourceGraphic" in2="BackgroundImageFix" result="shape"/>
<feColorMatrix in="SourceAlpha" type="matrix" values="0 0 0 0 0 0 0 0 0 0 0 0 0 0 0 0 0 0 127 0" result="hardAlpha"/>
<feOffset dx="0.5" dy="-0.5"/>
<feGaussianBlur stdDeviation="0.75"/>
<feComposite in2="hardAlpha" operator="arithmetic" k2="-1" k3="1"/>
<feColorMatrix type="matrix" values="0 0 0 0 0.27451 0 0 0 0 0.470588 0 0 0 0 0.501961 0 0 0 1 0"/>
<feBlend mode="normal" in2="shape" result="effect1_innerShadow_18_2983"/>
<feColorMatrix in="SourceAlpha" type="matrix" values="0 0 0 0 0 0 0 0 0 0 0 0 0 0 0 0 0 0 127 0" result="hardAlpha"/>
<feOffset dx="-0.5" dy="0.5"/>
<feGaussianBlur stdDeviation="0.625"/>
<feComposite in2="hardAlpha" operator="arithmetic" k2="-1" k3="1"/>
<feColorMatrix type="matrix" values="0 0 0 0 0.701961 0 0 0 0 0.956863 0 0 0 0 0.388235 0 0 0 1 0"/>
<feBlend mode="normal" in2="effect1_innerShadow_18_2983" result="effect2_innerShadow_18_2983"/>
</filter>
<radialGradient id="paint0_radial_18_2983" cx="0" cy="0" r="1" gradientUnits="userSpaceOnUse" gradientTransform="translate(13.7137 7.57356) rotate(41.1215) scale(4.50143 9.00286)">
<stop stop-color="#549649"/>
<stop offset="1" stop-color="#407A32"/>
</radialGradient>
<radialGradient id="paint1_radial_18_2983" cx="0" cy="0" r="1" gradientUnits="userSpaceOnUse" gradientTransform="translate(12.9871 7.14295) rotate(28.1365) scale(3.31006 1.15883)">
<stop stop-color="#72B761"/>
<stop offset="1" stop-color="#72B761" stop-opacity="0"/>
</radialGradient>
<linearGradient id="paint2_linear_18_2983" x1="22.8916" y1="11.0635" x2="5.21202" y2="30" gradientUnits="userSpaceOnUse">
<stop stop-color="#99CE56"/>
<stop offset="1" stop-color="#558D7D"/>
</linearGradient>
<radialGradient id="paint3_radial_18_2983" cx="0" cy="0" r="1" gradientUnits="userSpaceOnUse" gradientTransform="translate(5.43029 31.144) rotate(-45.2339) scale(12.6043 9.90341)">
<stop stop-color="#387C6B"/>
<stop offset="1" stop-color="#387C6B" stop-opacity="0"/>
</radialGradient>
<radialGradient id="paint4_radial_18_2983" cx="0" cy="0" r="1" gradientUnits="userSpaceOnUse" gradientTransform="translate(27.8698 12.5255) rotate(144.951) scale(8.81029 18.4861)">
<stop stop-color="#9ACF54"/>
<stop offset="1" stop-color="#9ACF54" stop-opacity="0"/>
</radialGradient>
<linearGradient id="paint5_linear_18_2983" x1="15.906" y1="30.131" x2="15.906" y2="29.4742" gradientUnits="userSpaceOnUse">
<stop stop-color="#64657D"/>
<stop offset="1" stop-color="#64657D" stop-opacity="0"/>
</linearGradient>
<linearGradient id="paint6_linear_18_2983" x1="4.5096" y1="25.0668" x2="5.31698" y2="25.0668" gradientUnits="userSpaceOnUse">
<stop stop-color="#3E6E5E"/>
<stop offset="1" stop-color="#3E6E5E" stop-opacity="0"/>
</linearGradient>
<radialGradient id="paint7_radial_18_2983" cx="0" cy="0" r="1" gradientUnits="userSpaceOnUse" gradientTransform="translate(24.3712 2.29866) rotate(147.529) scale(1.4036 1.47378)">
<stop stop-color="#B2F463"/>
<stop offset="1" stop-color="#B2F463" stop-opacity="0"/>
</radialGradient>
<linearGradient id="paint8_linear_18_2983" x1="23.9318" y1="8.27121" x2="4.90601" y2="29.4528" gradientUnits="userSpaceOnUse">
<stop stop-color="#FFF459"/>
<stop offset="1" stop-color="#FFB74D"/>
</linearGradient>
<linearGradient id="paint9_linear_18_2983" x1="4.90601" y1="28.743" x2="5.5758" y2="28.743" gradientUnits="userSpaceOnUse">
<stop stop-color="#CF9641"/>
<stop offset="1" stop-color="#CF9641" stop-opacity="0"/>
</linearGradient>
<linearGradient id="paint10_linear_18_2983" x1="7.70447" y1="30" x2="7.70447" y2="29.5156" gradientUnits="userSpaceOnUse">
<stop stop-color="#F08565"/>
<stop offset="1" stop-color="#F08565" stop-opacity="0"/>
</linearGradient>
</defs>
</svg>

<svg width="100%" height="100%" viewBox="0 0 32 32" xmlns="http://www.w3.org/2000/svg"><path fill="url(#a)" d="M15.906 8.529c-2.5 0-4-2.529-4-2.529v4h8V6s-1.5 2.529-4 2.529"/><path fill="url(#b)" d="M15.906 8.529c-2.5 0-4-2.529-4-2.529v4h8V6s-1.5 2.529-4 2.529"/><g filter="url(#c)"><path fill="url(#d)" d="M8.656 2h3.5a.75.75 0 0 1 .75.75V7a3 3 0 0 0 6 0V2.75a.75.75 0 0 1 .75-.75h3.5a.75.75 0 0 1 .75.75V11q0 .165.026.322A2 2 0 0 0 25.906 13h.25a.75.75 0 0 1 .75.75v15.5a.75.75 0 0 1-.75.75h-20.5a.75.75 0 0 1-.75-.75v-15.5a.75.75 0 0 1 .75-.75h.25a2 2 0 0 0 2-2V2.75a.75.75 0 0 1 .75-.75"/><path fill="url(#e)" d="M8.656 2h3.5a.75.75 0 0 1 .75.75V7a3 3 0 0 0 6 0V2.75a.75.75 0 0 1 .75-.75h3.5a.75.75 0 0 1 .75.75V11q0 .165.026.322A2 2 0 0 0 25.906 13h.25a.75.75 0 0 1 .75.75v15.5a.75.75 0 0 1-.75.75h-20.5a.75.75 0 0 1-.75-.75v-15.5a.75.75 0 0 1 .75-.75h.25a2 2 0 0 0 2-2V2.75a.75.75 0 0 1 .75-.75"/><path fill="url(#f)" d="M8.656 2h3.5a.75.75 0 0 1 .75.75V7a3 3 0 0 0 6 0V2.75a.75.75 0 0 1 .75-.75h3.5a.75.75 0 0 1 .75.75V11q0 .165.026.322A2 2 0 0 0 25.906 13h.25a.75.75 0 0 1 .75.75v15.5a.75.75 0 0 1-.75.75h-20.5a.75.75 0 0 1-.75-.75v-15.5a.75.75 0 0 1 .75-.75h.25a2 2 0 0 0 2-2V2.75a.75.75 0 0 1 .75-.75"/></g><path fill="url(#g)" d="M8.656 2h3.5a.75.75 0 0 1 .75.75V7a3 3 0 0 0 6 0V2.75a.75.75 0 0 1 .75-.75h3.5a.75.75 0 0 1 .75.75V11q0 .165.026.322A2 2 0 0 0 25.906 13h.25a.75.75 0 0 1 .75.75v15.5a.75.75 0 0 1-.75.75h-20.5a.75.75 0 0 1-.75-.75v-15.5a.75.75 0 0 1 .75-.75h.25a2 2 0 0 0 2-2V2.75a.75.75 0 0 1 .75-.75"/><path fill="url(#h)" d="M8.656 2h3.5a.75.75 0 0 1 .75.75V7a3 3 0 0 0 6 0V2.75a.75.75 0 0 1 .75-.75h3.5a.75.75 0 0 1 .75.75V11q0 .165.026.322A2 2 0 0 0 25.906 13h.25a.75.75 0 0 1 .75.75v15.5a.75.75 0 0 1-.75.75h-20.5a.75.75 0 0 1-.75-.75v-15.5a.75.75 0 0 1 .75-.75h.25a2 2 0 0 0 2-2V2.75a.75.75 0 0 1 .75-.75"/><path fill="url(#i)" d="M8.656 2h3.5a.75.75 0 0 1 .75.75V7a3 3 0 0 0 6 0V2.75a.75.75 0 0 1 .75-.75h3.5a.75.75 0 0 1 .75.75V11q0 .165.026.322A2 2 0 0 0 25.906 13h.25a.75.75 0 0 1 .75.75v15.5a.75.75 0 0 1-.75.75h-20.5a.75.75 0 0 1-.75-.75v-15.5a.75.75 0 0 1 .75-.75h.25a2 2 0 0 0 2-2V2.75a.75.75 0 0 1 .75-.75"/><path fill="url(#j)" d="M7.15 30H5.656a.75.75 0 0 1-.75-.75v-1.465l19-21.147V11q0 .165.026.322z"/><path fill="url(#k)" d="M7.15 30H5.656a.75.75 0 0 1-.75-.75v-1.465l19-21.147V11q0 .165.026.322z"/><path fill="url(#l)" d="M7.15 30H5.656a.75.75 0 0 1-.75-.75v-1.465l19-21.147V11q0 .165.026.322z"/><defs><linearGradient id="d" x1="22.892" x2="5.212" y1="11.063" y2="30" gradientUnits="userSpaceOnUse"><stop stop-color="#99CE56"/><stop offset="1" stop-color="#558D7D"/></linearGradient><linearGradient id="g" x1="15.906" x2="15.906" y1="30.131" y2="29.474" gradientUnits="userSpaceOnUse"><stop stop-color="#64657D"/><stop offset="1" stop-color="#64657D" stop-opacity="0"/></linearGradient><linearGradient id="h" x1="4.51" x2="5.317" y1="25.067" y2="25.067" gradientUnits="userSpaceOnUse"><stop stop-color="#3E6E5E"/><stop offset="1" stop-color="#3E6E5E" stop-opacity="0"/></linearGradient><linearGradient id="j" x1="23.932" x2="4.906" y1="8.271" y2="29.453" gradientUnits="userSpaceOnUse"><stop stop-color="#FFF459"/><stop offset="1" stop-color="#FFB74D"/></linearGradient><linearGradient id="k" x1="4.906" x2="5.576" y1="28.743" y2="28.743" gradientUnits="userSpaceOnUse"><stop stop-color="#CF9641"/><stop offset="1" stop-color="#CF9641" stop-opacity="0"/></linearGradient><linearGradient id="l" x1="7.704" x2="7.704" y1="30" y2="29.516" gradientUnits="userSpaceOnUse"><stop stop-color="#F08565"/><stop offset="1" stop-color="#F08565" stop-opacity="0"/></linearGradient><radialGradient id="a" cx="0" cy="0" r="1" gradientTransform="matrix(3.391 2.9604 -5.9208 6.782 13.714 7.574)" gradientUnits="userSpaceOnUse"><stop stop-color="#549649"/><stop offset="1" stop-color="#407A32"/></radialGradient><radialGradient id="b" cx="0" cy="0" r="1" gradientTransform="matrix(2.9189 1.56094 -.54647 1.02189 12.987 7.143)" gradientUnits="userSpaceOnUse"><stop stop-color="#72B761"/><stop offset="1" stop-color="#72B761" stop-opacity="0"/></radialGradient><radialGradient id="e" cx="0" cy="0" r="1" gradientTransform="rotate(-45.234 40.093 9.055)scale(12.6043 9.90341)" gradientUnits="userSpaceOnUse"><stop stop-color="#387C6B"/><stop offset="1" stop-color="#387C6B" stop-opacity="0"/></radialGradient><radialGradient id="f" cx="0" cy="0" r="1" gradientTransform="rotate(144.951 11.957 10.663)scale(8.81029 18.4861)" gradientUnits="userSpaceOnUse"><stop stop-color="#9ACF54"/><stop offset="1" stop-color="#9ACF54" stop-opacity="0"/></radialGradient><radialGradient id="i" cx="0" cy="0" r="1" gradientTransform="matrix(-1.18417 .75355 -.79123 -1.24337 24.371 2.299)" gradientUnits="userSpaceOnUse"><stop stop-color="#B2F463"/><stop offset="1" stop-color="#B2F463" stop-opacity="0"/></radialGradient><filter id="c" width="23" height="29" x="4.406" y="1.5" color-interpolation-filters="sRGB" filterUnits="userSpaceOnUse"><feFlood flood-opacity="0" result="BackgroundImageFix"/><feBlend in="SourceGraphic" in2="BackgroundImageFix" result="shape"/><feColorMatrix in="SourceAlpha" result="hardAlpha" values="0 0 0 0 0 0 0 0 0 0 0 0 0 0 0 0 0 0 127 0"/><feOffset dx=".5" dy="-.5"/><feGaussianBlur stdDeviation=".75"/><feComposite in2="hardAlpha" k2="-1" k3="1" operator="arithmetic"/><feColorMatrix values="0 0 0 0 0.27451 0 0 0 0 0.470588 0 0 0 0 0.501961 0 0 0 1 0"/><feBlend in2="shape" result="effect1_innerShadow_18_2983"/><feColorMatrix in="SourceAlpha" result="hardAlpha" values="0 0 0 0 0 0 0 0 0 0 0 0 0 0 0 0 0 0 127 0"/><feOffset dx="-.5" dy=".5"/><feGaussianBlur stdDeviation=".625"/><feComposite in2="hardAlpha" k2="-1" k3="1" operator="arithmetic"/><feColorMatrix values="0 0 0 0 0.701961 0 0 0 0 0.956863 0 0 0 0 0.388235 0 0 0 1 0"/><feBlend in2="effect1_innerShadow_18_2983" result="effect2_innerShadow_18_2983"/></filter></defs></svg>
